brandFactory_export/3.Masa/factura digital_3Masa.svg

<?xml version="1.0" encoding="UTF-8"?>
<svg width="24px" height="24px" viewBox="0 0 24 24" version="1.1" xmlns="http://www.w3.org/2000/svg" xmlns:xlink="http://www.w3.org/1999/xlink">
    <title>3.Masa/factura digital_3Masa</title>
    <g id="Symbols" stroke="none" stroke-width="1" fill="none" fill-rule="evenodd">
        <g id="3.Masa/factura-digital_3Masa" fill="#5CB615" fill-rule="nonzero">
            <path d="M22.9176471,18.7445378 C23.287395,18.7445378 23.589916,19.0470588 23.589916,19.4168067 C23.589916,19.7865546 23.287395,20.0890756 22.9176471,20.0890756 L0.712605042,20.0890756 C0.342857143,20.0890756 0.0403361342,19.7865546 0.0403361342,19.4168067 C0.0403361342,19.0470588 0.342857143,18.7445378 0.712605042,18.7445378 L22.9176471,18.7445378 Z M19.6806723,3.01008403 C21.0016807,3.01008403 22.010084,3.40336134 22.6857143,4.17647059 C23.3109244,4.89579832 23.6302521,5.93781513 23.6302521,7.27563025 L23.6302521,7.27563025 L23.6302521,13.205042 C23.6302521,14.5428571 23.3142857,15.5848739 22.6857143,16.3042017 C22.010084,17.0739496 20.9983193,17.4672269 19.6806723,17.4672269 L19.6806723,17.4672269 L3.94957983,17.4672269 C2.62857143,17.4672269 1.62016807,17.0739496 0.944537815,16.3008403 C0.319327731,15.5815126 -2.40639508e-10,14.5394958 -2.40639508e-10,13.2016807 L-2.40639508e-10,13.2016807 L-2.40639508e-10,7.27563025 C-2.40639508e-10,5.93781513 0.319327731,4.89579832 0.944537815,4.17647059 C1.62016807,3.40336134 2.63193277,3.01008403 3.94957983,3.01008403 L3.94957983,3.01008403 Z M12.497479,5.46386555 L9.13613445,5.46386555 C8.67226891,5.46386555 8.35966387,5.77310924 8.35966387,6.23697479 L8.35966387,6.23697479 L8.35966387,14.2134454 C8.35966387,14.6806723 8.67226891,14.9932773 9.13613445,14.9932773 L9.13613445,14.9932773 L14.5042017,14.9932773 C14.9546218,14.9932773 15.2705882,14.6773109 15.2705882,14.2268908 L15.2705882,14.2268908 L15.2705882,8.24369748 C15.2705882,8.1092437 15.2168067,7.97815126 15.1226891,7.88403361 L15.1226891,7.88403361 L12.8537815,5.61176471 C12.7596639,5.51764706 12.6319328,5.46386555 12.497479,5.46386555 L12.497479,5.46386555 Z M12.0470588,6.47563025 L12.0470588,7.28571429 C12.0470588,8.15294118 12.5109244,8.6907563 13.2537815,8.6907563 L13.2537815,8.6907563 L14.2621849,8.6907563 L14.2621849,13.9882353 L9.36806723,13.9882353 L9.36806723,6.47563025 L12.0470588,6.47563025 Z M13.4084034,12.1764706 L10.2285714,12.1764706 C10.0436975,12.1764706 9.89243697,12.3277311 9.89243697,12.512605 C9.89243697,12.697479 10.0436975,12.8487395 10.2285714,12.8487395 L10.2285714,12.8487395 L13.405042,12.8487395 C13.589916,12.8487395 13.7445378,12.697479 13.7445378,12.512605 C13.7445378,12.3277311 13.5932773,12.1764706 13.4084034,12.1764706 L13.4084034,12.1764706 Z M13.4084034,10.8151261 L10.2285714,10.8151261 C10.0436975,10.8151261 9.89243697,10.9663866 9.89243697,11.1512605 C9.89243697,11.3361345 10.0436975,11.487395 10.2285714,11.487395 L10.2285714,11.487395 L13.405042,11.487395 C13.589916,11.487395 13.7445378,11.3361345 13.7445378,11.1512605 C13.7445378,10.9663866 13.5932773,10.8151261 13.4084034,10.8151261 L13.4084034,10.8151261 Z M13.4084034,9.45378151 L10.2285714,9.45378151 C10.0436975,9.45378151 9.89243697,9.60504202 9.89243697,9.78991597 C9.89243697,9.97478992 10.0436975,10.1260504 10.2285714,10.1260504 L10.2285714,10.1260504 L13.405042,10.1260504 C13.589916,10.1260504 13.7411765,9.97478992 13.7411765,9.78991597 C13.7411765,9.60168067 13.589916,9.45378151 13.4084034,9.45378151 L13.4084034,9.45378151 Z M12.7193277,6.9092437 L13.8285714,8.01848739 L13.2537815,8.01848739 C12.9008403,8.01848739 12.7193277,7.7697479 12.7193277,7.28571429 L12.7193277,7.28571429 L12.7193277,6.9092437 Z" id="factura-digital_3Masa"></path>
        </g>
    </g>
</svg>

<svg width="24" height="24" viewBox="0 0 24 24" xmlns="http://www.w3.org/2000/svg"><path d="M22.918 18.745c.37 0 .672.302.672.672 0 .37-.303.672-.672.672H.713a.674.674 0 01-.673-.672c0-.37.303-.672.673-.672h22.205zM19.68 3.01c1.32 0 2.33.393 3.005 1.166.625.72.944 1.762.944 3.1v5.929c0 1.338-.316 2.38-.944 3.1-.676.769-1.688 1.162-3.005 1.162H3.95c-1.321 0-2.33-.393-3.005-1.166C.319 15.58 0 14.539 0 13.2V7.277c0-1.338.32-2.38.945-3.1C1.62 3.403 2.632 3.01 3.95 3.01zm-7.184 2.454h-3.36c-.465 0-.777.31-.777.773v7.976c0 .468.312.78.776.78h5.368c.45 0 .767-.316.767-.766V8.244a.512.512 0 00-.148-.36l-2.27-2.272a.504.504 0 00-.356-.148zm-.45 1.012v.81c0 .867.464 1.405 1.207 1.405h1.008v5.297H9.368V6.476h2.68zm1.361 5.7h-3.18a.337.337 0 00-.336.337c0 .184.152.336.337.336h3.176a.34.34 0 00.34-.336.337.337 0 00-.337-.337zm0-1.36h-3.18a.337.337 0 00-.336.335c0 .185.152.336.337.336h3.176a.34.34 0 00.34-.336.337.337 0 00-.337-.336zm0-1.362h-3.18a.337.337 0 00-.336.336c0 .185.152.336.337.336h3.176a.337.337 0 00.336-.336.334.334 0 00-.333-.336zm-.689-2.545l1.11 1.11h-.575c-.353 0-.535-.25-.535-.733v-.377z" fill="#5CB615" fill-rule="nonzero"/></svg>
